!!!COM: Bach, Johann Sebastian
!!!OTL: 258. Meine Augen schliess' ich jetzt
!!!ONM: No. 258
!!!OCL: Erk
!!!SCA: BWV 378
!!!YOE: Riemenschneider, Albert
!!!OPR: 371 Harmonized Chorales and 69 Chorale Melodies with Figured Bass
!!!OPT: Bach Chorale Harmonizations
**harm	**root	**kern	**kern	**kern	**kern
!	!	!bass	!tenor	!alto	!sprno
*Iorgan	*Iorgan	*Iorgan	*Iorgan	*Iorgan	*Iorgan
*k[b-]	*k[b-]	*k[b-]	*k[b-]	*k[b-]	*k[b-]
*F:	*F:	*F:	*F:	*F:	*F:
*met(c)	*met(c)	*met(c)	*met(c)	*met(c)	*met(c)
*M4/4	*M4/4	*M4/4	*M4/4	*M4/4	*M4/4
*MM60	*MM60	*MM60	*MM60	*MM60	*MM60
I	4GG	8FF	8A	4c	4f
.	.	8GG	8G	.	.
=1	=1	=1	=1	=1	=1
Ib	4GG	8AA	4F	4c	4f
.	.	8BB-	.	.	.
V	4DD	8C	4E	4G	4c
.	.	8BB-	.	.	.
Ib	4GG	4AA	4F	4c	4f
viiob	4FF#	4GG	4B-	8d	4g
.	.	.	.	8e	.
=2	=2	=2	=2	=2	=2
I;	2.GG;	2FF;	2c;	2f;	2a;
.	.	4r	4r	4r	4r
Ib	4GG	4AA	4c	[4f	4cc
=3	=3	=3	=3	=3	=3
IV	4CC	4.BB-	4B-	8f]	4dd
.	.	.	.	8e	.
Ib	4GG	.	4c	[4f	4cc
.	.	8AA	.	.	.
ii7	4AA	4GG	8d	8f]	4.b-
.	.	.	16c	16e	.
.	.	.	16B-	16d	.
V	4DD	4CC	4c	4e	.
.	.	.	.	.	8cc
=4	=4	=4	=4	=4	=4
I;	2GG;	2FF;	2c;	2f;	2a;
r	4r	4r	4r	4r	4r
I	4GG	4FF	4A	[4f	4cc
=5	=5	=5	=5	=5	=5
viiob	4FF#	4GG	4B-	8f]	4b-
.	.	.	.	8e	.
Ib	4GG	8AA	4c	[4f	4a
.	.	8BB-	.	.	.
V	4DD	4C	[4c	8f]	4g
.	.	.	.	8e	.
viiob/V	4CC#	4D	8c]	8f	4f
.	.	.	8B	8F	.
=6	=6	=6	=6	=6	=6
V;	2DD;	2C;	2e;	2c;	2g;
r	4r	4r	4r	4r	4r
Vb/vi	4BB	4C#	4A	4e	4a
=7	=7	=7	=7	=7	=7
vi	4EE	4.D	4A	8e	4f
.	.	.	.	16d	.
.	.	.	.	16e	.
IVb	8CC	.	8d	8f	4b-
V7b	8DD	8E	8c	[8g	.
I	4GG	4F	4c	8g]	4a
.	.	.	.	8f	.
V	4DD	4C	8.c	8f	4g
.	.	.	.	8e	.
.	.	.	16B-	.	.
=8	=8	=8	=8	=8	=8
I;	2GG;	2FF;	2A;	2c;	2f;
r	4r	4r	4r	4r	4r
I	4GG	8FF	4c	4f	8a
.	.	8GG	.	.	8b-
=9	=9	=9	=9	=9	=9
!!linebreak: 2
Ib	4GG	4.AA	8c	4f	4cc
.	.	.	8B-	.	.
Ib	8GG	.	4A	4f	4cc
vi7	8EE	8D	.	.	.
ii7	4AA	4GG	4B-	8f	4b-
.	.	.	.	8e	.
Ib	4GG	8AA	4c	4f	4a
.	.	8BB-	.	.	.
=10	=10	=10	=10	=10	=10
V;	2DD;	2C;	2c;	4f	2g;
.	.	.	.	4e;	.
r	4r	4r	4r	4r	4r
Vb/vi	4BB	4C#	4A	4e	4a
=11	=11	=11	=11	=11	=11
vi	4EE	8D	8A	4d	4f
.	.	8C	8B-	.	.
Ib	4GG	8BB-	4c	4c	4f
.	.	8AA	.	.	.
iib	4AA	8BB-	4B-	4d	4g
.	.	8AA	.	.	.
Vb/ii	4EE	8GG	[4A	4d	4a
.	.	8FF#	.	.	.
=12	=12	=12	=12	=12	=12
ii	4AA	8GG	8A]	2d	2b-
.	.	8AA	16G	.	.
.	.	.	16F#	.	.
iib	4AA	8BB-	4G	.	.
.	.	8C	.	.	.
VI;	4EE;	4D;	8G	4d;	4a;
.	.	.	8F#;	.	.
Vb/IV	4GG	4AA	4F	8c	4cc
.	.	.	.	8e-	.
=13	=13	=13	=13	=13	=13
IV	4CC	4BB-	4F	8d	4b-
.	.	.	.	4f	.
V	4DD	4C	4c	.	4g
.	.	.	.	8ey	.
I	4GG	8F	4c	4f	4a
.	.	8E	.	.	.
IVb	4CC	4D	4d	4f	4b-
=14	=14	=14	=14	=14	=14
Ib;	2GG;	2AA;	2c;	2f;	2cc;
r	4r	4r	4r	4r	4r
vi	4EE	8D	4A	[4d	4f
.	.	8C	.	.	.
=15	=15	=15	=15	=15	=15
iib	8AA	4BB-	8B-	8d]	4g
V7d	8DD	.	8c	8e	.
Ib	8GG	8AA	8c	[4f	4a
vi	8EE	8D	16d	.	.
.	.	.	16c	.	.
viiob	4FF#	4GG	4B-	8f]	4b-
.	.	.	.	8e	.
Ib	4GG	8AA	4c	4f	4a
.	.	8FF	.	.	.
=16	=16	=16	=16	=16	=16
ii7b	4AA	4BB-	4d	8f	2g
.	.	.	.	16e	.
.	.	.	.	16d	.
V	4DD	4C	8.c	4e	.
.	.	.	16B-	.	.
I;	4GG;	4FF;	4A;	4c;	4f;
==	==	==	==	==	==
*-	*-	*-	*-	*-	*-
!!!CDT: 1685/3//-1750/7/28
!!!OCY: Deutschland
!!!AGN: chorale
!!!AST: Baroque
!!!AIN: vox
!!!YOY: 1941
!!!PPP: New York; London
!!!PPR: G. Schirmer
!!!ENC: David Huron
!!!EED: David Huron
!!!YEN: United States of America
!!!YER: 1992
!!!YEC: Copyright 1992 David Huron
!!!YEM: Rights to all derivative electronic formats reserved.
!!!YER: March 20, 1996
!!!AMT: simple quadruple
!!!EEV: 1.1
!!chor2scor: -l 2 -s 0.6 -o %b.pmx
